assets/icon/achievements/network.svg

<svg height="480pt" viewBox="0 0 480 480" width="480pt" xmlns="http://www.w3.org/2000/svg"><path d="m384 192c52.9375 0 96-43.0625 96-96s-43.0625-96-96-96c-38.441406 0-71.585938 22.761719-86.902344 55.472656l-25.707031-9.488281c.304687-1.96875.609375-3.9375.609375-5.984375 0-22.054688-17.945312-40-40-40s-40 17.945312-40 40 17.945312 40 40 40c14.328125 0 26.824219-7.640625 33.886719-18.992188l25.664062 9.472657c-2.253906 8.144531-3.550781 16.671875-3.550781 25.519531 0 10.480469 1.742188 20.542969 4.863281 29.992188l-87.984375 37.289062c-16.109375-30.457031-48.085937-51.28125-84.878906-51.28125-11.921875 0-23.296875 2.289062-33.839844 6.273438l-22.128906-46.503907c9.640625-7.3125 15.96875-18.769531 15.96875-31.769531 0-22.054688-17.945312-40-40-40s-40 17.945312-40 40 17.945312 40 40 40c3.328125 0 6.519531-.527344 9.617188-1.304688l22.101562 46.457032c-28.488281 16.671875-47.71875 47.519531-47.71875 82.847656 0 33.183594 16.929688 62.472656 42.59375 79.71875l-14.632812 26.304688c-3.808594-1.199219-7.769532-2.023438-11.960938-2.023438-22.054688 0-40 17.945312-40 40s17.945312 40 40 40 40-17.945312 40-40c0-12.113281-5.527344-22.855469-14.054688-30.191406l14.664063-26.359375c12.03125 5.445312 25.34375 8.550781 39.390625 8.550781 21.953125 0 42.144531-7.488281 58.335938-19.9375l31.488281 34.640625c-15.96875 17.152344-25.824219 40.066406-25.824219 65.296875 0 4.894531.488281 9.664062 1.191406 14.359375l-37.046875 8.792969c-6.375-13.632813-20.128906-23.152344-36.144531-23.152344-22.054688 0-40 17.945312-40 40s17.945312 40 40 40 40-17.945312 40-40c0-.441406-.121094-.855469-.128906-1.296875l36.976562-8.765625c12.609375 38.308594 48.671875 66.0625 91.152344 66.0625 52.9375 0 96-43.0625 96-96 0-16.414062-4.152344-31.871094-11.449219-45.390625l46.992188-30.554687c7.265625 7.359374 17.328125 11.945312 28.457031 11.945312 22.054688 0 40-17.945312 40-40s-17.945312-40-40-40-40 17.945312-40 40c0 5.167969 1.0625 10.078125 2.855469 14.617188l-47.101563 30.621093c-9.425781-12.117187-21.664062-21.902343-35.753906-28.398437l39.046875-108.246094c7.96875 2.148438 16.3125 3.40625 24.953125 3.40625zm-152-128c-13.230469 0-24-10.769531-24-24s10.769531-24 24-24 24 10.769531 24 24-10.769531 24-24 24zm-216-24c0-13.230469 10.769531-24 24-24s24 10.769531 24 24-10.769531 24-24 24-24-10.769531-24-24zm24 336c-13.230469 0-24-10.769531-24-24s10.769531-24 24-24 24 10.769531 24 24-10.769531 24-24 24zm72 72c-13.230469 0-24-10.769531-24-24s10.769531-24 24-24 24 10.769531 24 24-10.769531 24-24 24zm328-192c13.230469 0 24 10.769531 24 24s-10.769531 24-24 24-24-10.769531-24-24 10.769531-24 24-24zm-103.113281-95.488281c3.570312-18.503907 19.882812-32.511719 39.113281-32.511719h16c19.230469 0 35.542969 14.007812 39.113281 32.511719-13.234375 9.6875-29.488281 15.488281-47.113281 15.488281s-33.878906-5.800781-47.113281-15.488281zm47.113281-48.511719c-13.230469 0-24-10.769531-24-24s10.769531-24 24-24 24 10.769531 24 24-10.769531 24-24 24zm0-96c44.113281 0 80 35.886719 80 80 0 20-7.433594 38.273438-19.617188 52.3125-5.605468-14.761719-17.292968-26.542969-31.855468-32.359375 7.082031-7.21875 11.472656-17.074219 11.472656-27.953125 0-22.054688-17.945312-40-40-40s-40 17.945312-40 40c0 10.878906 4.390625 20.734375 11.472656 27.953125-14.5625 5.816406-26.25 17.597656-31.855468 32.359375-12.183594-14.039062-19.617188-32.3125-19.617188-52.3125 0-44.113281 35.886719-80 80-80zm-344 192c0-44.113281 35.886719-80 80-80s80 35.886719 80 80c0 20.0625-7.480469 38.382812-19.726562 52.441406-5.585938-14.816406-17.296876-26.65625-31.898438-32.488281 7.074219-7.21875 11.464844-17.074219 11.464844-27.953125 0-22.054688-17.945313-40-40-40-22.054688 0-40 17.945312-40 40 0 10.878906 4.390625 20.734375 11.472656 27.953125-14.519531 5.789063-26.191406 17.527344-31.816406 32.230469-12.113282-14.023438-19.496094-32.238282-19.496094-52.183594zm55.839844-8c0-13.230469 10.769531-24 24-24 13.230468 0 24 10.769531 24 24s-10.769532 24-24 24c-13.230469 0-24-10.769531-24-24zm-23.085938 72.40625c3.605469-18.453125 19.894532-32.40625 39.085938-32.40625h16c19.265625 0 35.609375 14.054688 39.128906 32.617188-13.207031 9.628906-29.410156 15.382812-46.96875 15.382812-17.6875 0-33.992188-5.839844-47.246094-15.59375zm160 176c3.605469-18.453125 19.894532-32.40625 39.085938-32.40625h16c19.265625 0 35.609375 14.054688 39.128906 32.617188-13.207031 9.628906-29.410156 15.382812-46.96875 15.382812-17.6875 0-33.992188-5.839844-47.246094-15.59375zm47.085938-48.40625c-13.230469 0-24-10.769531-24-24s10.769531-24 24-24c13.230468 0 24 10.769531 24 24s-10.769532 24-24 24zm80.160156-16c0 20.0625-7.480469 38.382812-19.726562 52.441406-5.585938-14.816406-17.296876-26.65625-31.898438-32.488281 7.074219-7.21875 11.464844-17.074219 11.464844-27.953125 0-22.054688-17.945313-40-40-40-22.054688 0-40 17.945312-40 40 0 10.878906 4.390625 20.734375 11.472656 27.953125-14.519531 5.789063-26.191406 17.527344-31.816406 32.230469-12.113282-14.023438-19.496094-32.238282-19.496094-52.183594 0-44.113281 35.886719-80 80-80s80 35.886719 80 80zm-55.046875-92.59375c-7.96875-2.148438-16.3125-3.40625-24.953125-3.40625-21.953125 0-42.144531 7.488281-58.335938 19.9375l-31.488281-34.640625c15.96875-17.152344 25.824219-40.066406 25.824219-65.296875 0-10.480469-1.742188-20.542969-4.863281-29.992188l87.984375-37.289062c9.855468 18.632812 25.671875 33.585938 44.886718 42.441406zm0 0"/></svg>

<?xml version="1.0" encoding="UTF-8" standalone="no"?>
<!DOCTYPE svg PUBLIC "-//W3C//DTD SVG 1.1//EN" "http://www.w3.org/Graphics/SVG/1.1/DTD/svg11.dtd">
<svg width="100%" height="100%" viewBox="0 0 480 480" version="1.1" xmlns="http://www.w3.org/2000/svg" xmlns:xlink="http://www.w3.org/1999/xlink" xml:space="preserve" xmlns:serif="http://www.serif.com/" style="fill-rule:evenodd;clip-rule:evenodd;stroke-linejoin:round;stroke-miterlimit:2;">
    <path d="M384,192C436.938,192 480,148.938 480,96C480,43.063 436.938,0 384,0C345.559,0 312.414,22.762 297.098,55.473L271.391,45.984C271.695,44.016 272,42.047 272,40C272,17.945 254.055,0 232,0C209.945,0 192,17.945 192,40C192,62.055 209.945,80 232,80C246.328,80 258.824,72.359 265.887,61.008L291.551,70.48C289.297,78.625 288,87.152 288,96C288,106.48 289.742,116.543 292.863,125.992L204.879,163.281C188.77,132.824 156.793,112 120,112C108.078,112 96.703,114.289 86.16,118.273L64.031,71.77C73.672,64.457 80,53 80,40C80,17.945 62.055,0 40,0C17.945,0 -0,17.945 -0,40C-0,62.055 17.945,80 40,80C43.328,80 46.52,79.473 49.617,78.695L71.719,125.152C43.23,141.824 24,172.672 24,208C24,241.184 40.93,270.473 66.594,287.719L51.961,314.023C48.152,312.824 44.191,312 40,312C17.945,312 -0,329.945 -0,352C-0,374.055 17.945,392 40,392C62.055,392 80,374.055 80,352C80,339.887 74.473,329.145 65.945,321.809L80.609,295.449C92.641,300.895 105.953,304 120,304C141.953,304 162.145,296.512 178.336,284.063L209.824,318.703C193.855,335.855 184,358.77 184,384C184,388.895 184.488,393.664 185.191,398.359L148.145,407.152C141.77,393.52 128.016,384 112,384C89.945,384 72,401.945 72,424C72,446.055 89.945,464 112,464C134.055,464 152,446.055 152,424C152,423.559 151.879,423.145 151.871,422.703L188.848,413.938C201.457,452.246 237.52,480 280,480C332.938,480 376,436.938 376,384C376,367.586 371.848,352.129 364.551,338.609L411.543,308.055C418.809,315.414 428.871,320 440,320C462.055,320 480,302.055 480,280C480,257.945 462.055,240 440,240C417.945,240 400,257.945 400,280C400,285.168 401.063,290.078 402.855,294.617L355.754,325.238C346.328,313.121 334.09,303.336 320,296.84L359.047,188.594C367.016,190.742 375.359,192 384,192ZM232,64C218.77,64 208,53.23 208,40C208,26.77 218.77,16 232,16C245.23,16 256,26.77 256,40C256,53.23 245.23,64 232,64ZM16,40C16,26.77 26.77,16 40,16C53.23,16 64,26.77 64,40C64,53.23 53.23,64 40,64C26.77,64 16,53.23 16,40ZM40,376C26.77,376 16,365.23 16,352C16,338.77 26.77,328 40,328C53.23,328 64,338.77 64,352C64,365.23 53.23,376 40,376ZM112,448C98.77,448 88,437.23 88,424C88,410.77 98.77,400 112,400C125.23,400 136,410.77 136,424C136,437.23 125.23,448 112,448ZM440,256C453.23,256 464,266.77 464,280C464,293.23 453.23,304 440,304C426.77,304 416,293.23 416,280C416,266.77 426.77,256 440,256ZM336.887,160.512C340.457,142.008 356.77,128 376,128L392,128C411.23,128 427.543,142.008 431.113,160.512C417.879,170.199 401.625,176 384,176C366.375,176 350.121,170.199 336.887,160.512ZM384,112C370.77,112 360,101.23 360,88C360,74.77 370.77,64 384,64C397.23,64 408,74.77 408,88C408,101.23 397.23,112 384,112ZM384,16C428.113,16 464,51.887 464,96C464,116 456.566,134.273 444.383,148.313C438.777,133.551 427.09,121.77 412.527,115.953C419.609,108.734 424,98.879 424,88C424,65.945 406.055,48 384,48C366.126,48 350.951,59.786 345.84,75.995C344.645,79.786 344,83.819 344,88C344,98.879 348.391,108.734 355.473,115.953C340.91,121.77 329.223,133.551 323.617,148.313C311.434,134.273 304,116 304,96C304,51.887 339.887,16 384,16ZM40,208C40,163.887 75.887,128 120,128C164.113,128 200,163.887 200,208C200,228.063 192.52,246.383 180.273,260.441C174.688,245.625 162.977,233.785 148.375,227.953C155.449,220.734 159.84,210.879 159.84,200C159.84,177.945 141.895,160 119.84,160C97.785,160 79.84,177.945 79.84,200C79.84,210.879 84.23,220.734 91.313,227.953C76.793,233.742 65.121,245.48 59.496,260.184C47.383,246.16 40,227.945 40,208ZM95.84,200C95.84,186.77 106.609,176 119.84,176C133.07,176 143.84,186.77 143.84,200C143.84,213.23 133.07,224 119.84,224C106.609,224 95.84,213.23 95.84,200ZM72.754,272.406C76.359,253.953 92.648,240 111.84,240L127.84,240C147.105,240 163.449,254.055 166.969,272.617C153.762,282.246 137.559,288 120,288C102.313,288 86.008,282.16 72.754,272.406ZM232.754,448.406C236.359,429.953 252.648,416 271.84,416L287.84,416C307.105,416 323.449,430.055 326.969,448.617C313.762,458.246 297.559,464 280,464C262.313,464 246.008,458.16 232.754,448.406ZM279.84,400C266.609,400 255.84,389.23 255.84,376C255.84,362.77 266.609,352 279.84,352C293.07,352 303.84,362.77 303.84,376C303.84,389.23 293.07,400 279.84,400ZM360,384C360,404.063 352.52,422.383 340.273,436.441C334.688,421.625 322.977,409.785 308.375,403.953C315.449,396.734 319.84,386.879 319.84,376C319.84,353.945 301.895,336 279.84,336C257.785,336 239.84,353.945 239.84,376C239.84,386.879 244.23,396.734 251.312,403.953C236.793,409.742 225.121,421.48 219.496,436.184C207.383,422.16 200,403.945 200,384C200,339.887 235.887,304 280,304C324.113,304 360,339.887 360,384ZM304.953,291.406C296.984,289.258 288.641,288 280,288C258.047,288 237.855,295.488 221.664,307.938L190.176,273.297C206.145,256.145 216,233.23 216,208C216,197.52 214.258,187.457 211.137,178.008L299.121,140.719C308.977,159.352 324.793,174.305 344.008,183.16L304.953,291.406Z" style="fill:white;fill-rule:nonzero;"/>
    <path d="M72.754,272.406C76.359,253.953 92.648,240 111.84,240L127.84,240C147.105,240 163.449,254.055 166.969,272.617C153.762,282.246 137.559,288 120,288C102.313,288 86.008,282.16 72.754,272.406Z" style="fill:rgb(235,113,27);"/>
    <path d="M95.84,200C95.84,186.77 106.609,176 119.84,176C133.07,176 143.84,186.77 143.84,200C143.84,213.23 133.07,224 119.84,224C106.609,224 95.84,213.23 95.84,200Z" style="fill:rgb(235,113,27);"/>
</svg>
